wp-content/uploads/symbols/SVG/Cloud 11.svg

<svg xmlns="http://www.w3.org/2000/svg" width="512" height="512">
  <defs>
    <pattern id="a" data-name="430-K" width="54" height="54" patternTransform="matrix(1.56 0 0 1.56 -66.9 -115.87)" patternUnits="userSpaceOnUse">
      <path fill="none" d="M0 0h54v54H0z"/>
      <path d="m4.76 4.37 2.65 2.82M.65 0l4.11 4.37m5.35 5.7-2.7-2.88m7.42 7.89-4.72-5.01m5.56-6.47 3.39 3.66m2.92 3.18 2.28 2.46M12.6.26 12.36 0m.24.26 3.07 3.34m6.31 6.84-2.92-3.18M12.36 54l-2.78-3.01M7.7 48.96l1.88 2.03M36.09 8.63l6.86 7.95m-9.74-11.3 2.88 3.35m-2.88-3.35-1.87-2.17M28.66 0l.47.54m2.21 2.57L29.13.54m15.71 12.77-6.49-7.6m6.49 7.6 2.31 2.71M33.64.21l4.71 5.5M33.64.21 33.47 0M47.2 16.08l-.05-.06M39.24 0l4.94 5.77m0 0 1.77 2.06m2.89 3.15 1.68 1.85m0 0 1.36 1.5M18.48.13l.71.89M18.38 0l.1.13m12.5 7.73 3.2 3.24m-3.2-3.24-.44-.44m3.64 3.68 2.8 2.82M26.5 4.17 23.76.79M23.11 0l.65.79m2.74 3.38 1.45 1.79m-6.63-1.81 3.01 3.03m-3.01-3.03-.56-.57m7.45 7.5-3.88-3.9m8.68 8.72-4.8-4.82M49.15 1l-.77-1m.77 1 2.25 2.83m1.6 2c-.39-.53-.94-1.22-1.55-2M7.51 1.13 4.76 4.37m2.75-3.24.57-.67M4.76 4.37l-.93 1.09m6.06-1.72-.56.72m.56-.72L12.6.26m0 0 .2-.26M6.51 15.15l.54-.77m3.06-4.31-3.06 4.31m4.03-5.67-.97 1.36m5.56-6.47L18.48.13m.1-.13-.1.13m-6.03 7.45 3.22-3.98m5.03 8.61 1.28-1.77m7.15-9.9.39-.54m-7.54 10.44 2.35-3.26m4.8-6.64L26.5 4.17m0 0-2.17 3.01M33.64.21l-2.3 2.9m2.3-2.9.17-.21m-2.47 3.11-1.76 2.22m10.9-2.37-2.13 2.75m-2.26 2.92 2.26-2.92m-5.12 6.62.95-1.23m1.91-2.47-1.91 2.47m10-5.33-1.1 1.06M49.15.99l.55-.53m-.55.53-4.97 4.78m3.4 2.44 3.82-4.38m0 0 .43-.5M44.66 13.5l.18-.19m3.08-3.25-3.08 3.25m5.05.21.63-.69m1.92-2.12-1.92 2.12m1.05 7.66-2.28 3.08m-1.9 2.56 1.9-2.56m-3.23 4.37 1.33-1.81M54 17.2l-2.43 3.29M.4 16.66l-.4.54M8.18 6.15l-.77 1.04m-3.2 4.31 3.2-4.31M.4 16.66l3.81-5.16m44.47 21.18-1.86 2.77m1.86-2.77L54 24.79M42.43 41.96l1.36-2.02m3.03-4.49-3.03 4.49M0 24.83l3.49-5.17m1.02-1.51-1.02 1.51m36.84-.75-3-3.08m5.66 5.8-2.66-2.72m2.66 2.72 4.4 4.5m.56.58-.56-.58m-2.38-7.23 4.28 4.67m0 0 1.34 1.45m-5.62-6.12-.18-.19m6.74 1.78-1.34-1.22M54 22.72l-2.43-2.23m-8.58 1.14-2.37 3.19m-1.67 2.23 1.67-2.23m4.39-5.92 2.14-2.88M36.7 30.08l2.25-3.03m4.04-5.42 2.02-2.73m3.16-4.25-1.02 1.37m-6.82 2.89-4.56 5.15m4.56-5.15 1.06-1.2m-7.75 8.75 2.13-2.4m-5.14-9.16-2.14 2.3m-3.89 4.2 3.89-4.2m-15.77 2.9-2.66-2.69m2.66 2.69.79.8m-3.45-3.49-3.01-3.03M4.21 11.5.7 7.96m3.51 3.54 2.84 2.88m5.5 21.66-2.94-3.15m-6.77-7.24.83.89m3.93 4.21-3.93-4.21m5.94 6.35L7.6 30.75m4.95 5.29 5.24 5.61m0 0 2.16 2.31M6.46 22.55l-2.97-2.89m-3.09-3-.4-.39m.4.39 3.09 3m6.34 6.17-3.37-3.28m-2.79 3.99-1.58 2.25m4.37-6.24-2.79 3.99m2.79-3.99 3.6-5.14m1.36-1.95-1.36 1.95m2.66 2.69 5.66-8.16m-8.5 12.25 2.84-4.09m10.05-2.72 5.44-6.3m2.77-3.22 2.23-2.58M19.86 20.75l-4.22 4.9M30.98 7.86l-2.77 3.22M13 28.7l-1.24 1.45m11.01-12.77-2.91 3.37M13 28.7l2.64-3.05M33.21 5.28l.55-.63m-1.67 15.94-3.6-3.39m3.6 3.39 3.68 3.47m3.18 2.99-3.18-2.99m-7.28-6.86-.79-.74m11.25 10.59 1.63 1.53m-18.04-5.16 1.91 1.91m-4.59-4.58-1.6-1.6m1.6 1.6 2.68 2.67m-6.9 2.23-2.7-2.59m2.7 2.59 1.99 1.91m4.69 2.85 2.91 2.78m-3.97-3.79 1.06 1.01m2.91 2.78 4.22 4.02m-1.42-12.54-5.71 5.74m9.77-9.82-4.06 4.08m4.06-4.08 3.67-3.69M22.32 30.41l-4.1 4.13m0 0-1.99 2m6.31-13.12.66-.84M12.55 36.04l3.29-4.16m6.7-8.46-6.7 8.46m-3.29 4.16-1.22 1.54m1.12-9.5.55.62m8.16 9.13-2.94-3.29m2.94 3.29 8.23 9.22M18.22 34.54l-2.38-2.66M13 28.7l2.84 3.18m13.55 15.17 1.28 1.43m-2.36-18.8-3.08 3.51M9.58 50.99l-.57.66m12.15-13.82 4.07-4.64m-4.07 4.64-3.37 3.82m12.04-13.69-1.52 1.72M9.58 50.99l3.36-3.82m4.85-5.52-4.85 5.52M35.07 31.5l.38-.54m-2.61 3.69-5.89 8.31m8.12-11.46-2.23 3.15m19.95 2.03.41.4m-4.52-4.4-8.06-7.86m0 0-2.29-2.24m10.35 10.1 4.11 4M41.5 37.73l2.29 2.21m0 0 .47.46m-5.89-5.71 3.13 3.04m-3.13-3.04-3.3-3.19m-7.23-7.02.19.19m0 0 7.04 6.83m9.91 2.11-3.03-3.03m6.88 6.88-2.01-2.01m0 0-1.84-1.84m-23.9 11.6 2.37 2.75m0 0 2.86 3.32M28.66 54l-2.35-2.72m6.12 1.51L33.47 54m2.95-3.29L39.24 54m-4.54-5.29 1.72 2m-26.6-7.47 3.12 3.93m-3.12-3.93L7.2 39.96M18.38 54l-5.44-6.83m6.89 2.79 1.01 1.24m0 0 2.27 2.8m12.72-15.83 2.65 3.21m6.19 7.48.28.35A43.65 43.65 0 0 0 48.38 54M35.83 38.17l-1-1.21m3.65 4.42 6.19 7.48m-30.09 2.85L12.8 54m12.78-8.67-2.13 2.63m-2.61 3.24L18.58 54m4.87-6.04-2.61 3.24m14.99-13.03 2.54-3.48m0 0 2.39-3.29m-4.93 6.77-6.44 8.88m0 0-3.08 4.23m0 0L24.34 54m8.36-4.42L29.52 54m6.9-3.29 4.16-5.25m-4.16 5.25L33.81 54M22.84 42.15l-4.61 5.14m27.44-14.48-.69.8m-3.48 4.12 3.5-4.12m-6.52 7.77a69.33 69.33 0 0 0-3.31 4.27m6.33-7.92c-1 1.18-2 2.45-3 3.65M0 34.94l1-1.44m1.76-2.67L1 33.5m5.16 13.67L3.2 50.35m9.97-10.7-3.35 3.59m-8.24 8.84 1.62-1.73m6.62-7.11-3.66 3.93m47.44-.62L54 46m-.4.55-4.2 5.78M2.29 42.95 0 46.1m10.78-14.83-1.17 1.62m0 0L2.29 42.95m47.04-1.1-2.94-3.25m7.21 7.95-4.27-4.7m4.27 4.7.4.44M.83 23.46 0 22.7M6.51 54 3.2 50.35M0 46.82l3.2 3.53m7.62-45.58-.93-1.03M6.49 0l1.02 1.13m2.38 2.61L7.51 1.13m.09 29.62L0 40.81m7.6-10.06 1.26-1.67m38.32 15.99-2.51 3.79m2.51-3.79 2.15-3.22m-6.43 9.73c.18-.29.83-1.3 1.77-2.72m8.12-12.18-3.46 5.17M54 34.87l-1.21 1.81M54 40.75l-1.67 2.21M28.31 29.68l-2.3-2.53m6.83 7.5.74.81m-.74-.81-4.53-4.97m18.87 15.39-1.98-2.3m4.68 5.44-2.7-3.14M43.35 54l-2.46-2.85m4.68-48.57L43.35 0m8.79 30.31L54 32.47M2.9 35.75.97 33.5M0 32.38l.97 1.12M54 16.27l-1.5-1.46M6.16 47.17l.89.96m-4.76-5.18 3.87 4.22m-3.87-4.22-1.04-1.14m21.52-24.43 1.4 1.68m-1.4-1.68-3.35-3.98M54 53.31l-2.56-2.73M15.2 12.57l3.86-5.31m0 0 2.26-3.11M23.76.79l.57-.79m-.57.79-2.44 3.36" fill="none" stroke="#221f1f" stroke-width=".43"/>
    </pattern>
    <filter id="b" x="-.18" y=".26" width="493.68" height="367.74" filterUnits="userSpaceOnUse" color-interpolation-filters="sRGB">
      <feFlood flood-color="#fff" result="bg"/>
      <feBlend in="SourceGraphic" in2="bg"/>
    </filter>
    <mask id="c" x="-.18" y=".26" width="493.68" height="367.74" maskUnits="userSpaceOnUse">
      <path data-name="Cloud 11" d="M394.27 144a79.38 79.38 0 0 0-67.16 37.06 34.3 34.3 0 0 0-3.94-.24 36 36 0 0 0-35.25 28.73A276.49 276.49 0 0 0 259.2 208a268.82 268.82 0 0 0-42.76 3.35 61 61 0 0 0-104.07 17.48 54.04 54.04 0 0 0-4.78-.26 55.39 55.39 0 0 0-50.72 33.18 33.47 33.47 0 0 0-6.06-.6 32.33 32.33 0 0 0 0 64.66A32 32 0 0 0 67 321.5a55.2 55.2 0 0 0 62.88 13.16c12.81 17.12 65.9 30 129.47 30a404.31 404.31 0 0 0 70.7-5.87 39 39 0 0 0 62-16.87 34 34 0 0 0 41.55-21.34 24.93 24.93 0 0 0 32.83-32.22 32 32 0 0 0 7.2-61.36c0-1.18.17-2.32.17-3.52A79.53 79.53 0 0 0 394.27 144" fill="url(#a)" filter="url(#b)"/>
    </mask>
  </defs>
  <g data-name="Cloud 11">
    <g mask="url(#c)">
      <path data-name="Cloud 11" d="M394.27 144a79.38 79.38 0 0 0-67.16 37.06 34.3 34.3 0 0 0-3.94-.24 36 36 0 0 0-35.25 28.73A276.49 276.49 0 0 0 259.2 208a268.82 268.82 0 0 0-42.76 3.35 61 61 0 0 0-104.07 17.48 54.04 54.04 0 0 0-4.78-.26 55.39 55.39 0 0 0-50.72 33.18 33.47 33.47 0 0 0-6.06-.6 32.33 32.33 0 0 0 0 64.66A32 32 0 0 0 67 321.5a55.2 55.2 0 0 0 62.88 13.16c12.81 17.12 65.9 30 129.47 30a404.31 404.31 0 0 0 70.7-5.87 39 39 0 0 0 62-16.87 34 34 0 0 0 41.55-21.34 24.93 24.93 0 0 0 32.83-32.22 32 32 0 0 0 7.2-61.36c0-1.18.17-2.32.17-3.52A79.53 79.53 0 0 0 394.27 144" fill="#dcd6cc"/>
    </g>
    <path data-name="Cloud 11" d="M394.27 144a79.38 79.38 0 0 0-67.16 37.06 34.3 34.3 0 0 0-3.94-.24 36 36 0 0 0-35.25 28.73A276.49 276.49 0 0 0 259.2 208a268.82 268.82 0 0 0-42.76 3.35 61 61 0 0 0-104.07 17.48 54.04 54.04 0 0 0-4.78-.26 55.39 55.39 0 0 0-50.72 33.18 33.47 33.47 0 0 0-6.06-.6 32.33 32.33 0 0 0 0 64.66A32 32 0 0 0 67 321.5a55.2 55.2 0 0 0 62.88 13.16c12.81 17.12 65.9 30 129.47 30a404.31 404.31 0 0 0 70.7-5.87 39 39 0 0 0 62-16.87 34 34 0 0 0 41.55-21.34 24.93 24.93 0 0 0 32.83-32.22 32 32 0 0 0 7.2-61.36c0-1.18.17-2.32.17-3.52A79.53 79.53 0 0 0 394.27 144" stroke="#e5cc9f" stroke-miterlimit="10" stroke-width="12.71" fill="none"/>
  </g>
</svg>

<svg xmlns="http://www.w3.org/2000/svg" width="512" height="512">
  <defs>
    <pattern id="_430-K" data-name="430-K" width="54" height="54" patternTransform="matrix(1.56 0 0 1.56 -66.9 -115.87)" patternUnits="userSpaceOnUse">
      <path fill="none" d="M0 0h54v54H0z"/>
      <path class="cls-3" d="m4.76 4.37 2.65 2.82M.65 0l4.11 4.37M10.11 10.07l-2.7-2.88M14.83 15.08l-4.72-5.01M15.67 3.6l3.39 3.66M21.98 10.44l2.28 2.46M12.6.26 12.36 0M12.6.26l3.07 3.34M21.98 10.44l-2.92-3.18M12.36 54l-2.78-3.01M7.7 48.96l1.88 2.03M36.09 8.63l6.86 7.95M33.21 5.28l2.88 3.35M33.21 5.28l-1.87-2.17M28.66 0l.47.54M31.34 3.11 29.13.54M44.84 13.31l-6.49-7.6M44.84 13.31l2.31 2.71M33.64.21l4.71 5.5M33.64.21 33.47 0M47.2 16.08l-.05-.06M39.24 0l4.94 5.77M44.18 5.77l1.77 2.06M48.84 10.98l1.68 1.85M50.52 12.83l1.36 1.5M18.48.13l.71.89M18.38 0l.1.13M30.98 7.86l3.2 3.24M30.98 7.86l-.44-.44M34.18 11.1l2.8 2.82M26.5 4.17 23.76.79M23.11 0l.65.79M26.5 4.17l1.45 1.79M21.32 4.15l3.01 3.03M21.32 4.15l-.56-.57M28.21 11.08l-3.88-3.9M33.01 15.9l-4.8-4.82M49.15 1l-.77-1M49.15 1l2.25 2.83M53 5.83c-.39-.53-.94-1.22-1.55-2M7.51 1.13 4.76 4.37M7.51 1.13l.57-.67M4.76 4.37l-.93 1.09M9.89 3.74l-.56.72M9.89 3.74 12.6.26M12.6.26l.2-.26M6.51 15.15l.54-.77M10.11 10.07l-3.06 4.31M11.08 8.71l-.97 1.36M15.67 3.6 18.48.13M18.58 0l-.1.13M12.45 7.58l3.22-3.98M20.7 12.21l1.28-1.77M29.13.54l.39-.54M21.98 10.44l2.35-3.26M29.13.54 26.5 4.17M26.5 4.17l-2.17 3.01M33.64.21l-2.3 2.9M33.64.21l.17-.21M31.34 3.11l-1.76 2.22M40.48 2.96l-2.13 2.75M36.09 8.63l2.26-2.92M33.23 12.33l.95-1.23M36.09 8.63l-1.91 2.47M44.18 5.77l-1.1 1.06M49.15.99l.55-.53M49.15.99l-4.97 4.78M47.58 8.21l3.82-4.38M51.4 3.83l.43-.5M44.66 13.5l.18-.19M47.92 10.06l-3.08 3.25M49.89 13.52l.63-.69M52.44 10.71l-1.92 2.12M51.57 20.49l-2.28 3.08M47.39 26.13l1.9-2.56M46.06 27.94l1.33-1.81M54 17.2l-2.43 3.29M.4 16.66l-.4.54M8.18 6.15l-.77 1.04M4.21 11.5l3.2-4.31M.4 16.66l3.81-5.16M48.68 32.68l-1.86 2.77M48.68 32.68 54 24.79M42.43 41.96l1.36-2.02M46.82 35.45l-3.03 4.49M0 24.83l3.49-5.17M4.51 18.15l-1.02 1.51M40.33 18.91l-3-3.08M42.99 21.63l-2.66-2.72M42.99 21.63l4.4 4.5M47.95 26.71l-.56-.58M45.01 18.9l4.28 4.67M49.29 23.57l1.34 1.45M45.01 18.9l-.18-.19M51.57 20.49l-1.34-1.22M54 22.72l-2.43-2.23M42.99 21.63l-2.37 3.19M38.95 27.05l1.67-2.23M45.01 18.9l2.14-2.88M36.7 30.08l2.25-3.03M42.99 21.63l2.02-2.73M48.17 14.65l-1.02 1.37M40.33 18.91l-4.56 5.15M40.33 18.91l1.06-1.2M33.64 26.46l2.13-2.4M30.63 14.9l-2.14 2.3M24.6 21.4l3.89-4.2M12.72 20.1l-2.66-2.69M12.72 20.1l.79.8M10.06 17.41l-3.01-3.03M4.21 11.5.7 7.96M4.21 11.5l2.84 2.88M12.55 36.04l-2.94-3.15M2.84 25.65l.83.89M7.6 30.75l-3.93-4.21M9.61 32.89 7.6 30.75M12.55 36.04l5.24 5.61M17.79 41.65l2.16 2.31M6.46 22.55l-2.97-2.89M.4 16.66l-.4-.39M.4 16.66l3.09 3M9.83 25.83l-3.37-3.28M3.67 26.54l-1.58 2.25M6.46 22.55l-2.79 3.99M6.46 22.55l3.6-5.14M11.42 15.46l-1.36 1.95M12.72 20.1l5.66-8.16M9.88 24.19l2.84-4.09M22.77 17.38l5.44-6.3M30.98 7.86l2.23-2.58M19.86 20.75l-4.22 4.9M30.98 7.86l-2.77 3.22M13 28.7l-1.24 1.45M22.77 17.38l-2.91 3.37M13 28.7l2.64-3.05M33.21 5.28l.55-.63M32.09 20.59l-3.6-3.39M32.09 20.59l3.68 3.47M38.95 27.05l-3.18-2.99M28.49 17.2l-.79-.74M38.95 27.05l1.63 1.53M22.54 23.42l1.91 1.91M19.86 20.75l-1.6-1.6M19.86 20.75l2.68 2.67M15.64 25.65l-2.7-2.59M15.64 25.65l1.99 1.91M22.32 30.41l2.91 2.78M21.26 29.4l1.06 1.01M25.23 33.19l4.22 4.02M28.03 24.67l-5.71 5.74M32.09 20.59l-4.06 4.08M32.09 20.59l3.67-3.69M22.32 30.41l-4.1 4.13M18.22 34.54l-1.99 2M22.54 23.42l.66-.84M12.55 36.04l3.29-4.16M22.54 23.42l-6.7 8.46M12.55 36.04l-1.22 1.54M12.45 28.08l.55.62M21.16 37.83l-2.94-3.29M21.16 37.83l8.23 9.22M18.22 34.54l-2.38-2.66M13 28.7l2.84 3.18M29.39 47.05l1.28 1.43M28.31 29.68l-3.08 3.51M9.58 50.99l-.57.66M21.16 37.83l4.07-4.64M21.16 37.83l-3.37 3.82M29.83 27.96l-1.52 1.72M9.58 50.99l3.36-3.82M17.79 41.65l-4.85 5.52M35.07 31.5l.38-.54M32.84 34.65l-5.89 8.31M35.07 31.5l-2.23 3.15M52.79 36.68l.41.4M48.68 32.68l-8.06-7.86M40.62 24.82l-2.29-2.24M48.68 32.68l4.11 4M41.5 37.73l2.29 2.21M43.79 39.94l.47.46M38.37 34.69l3.13 3.04M38.37 34.69l-3.3-3.19M27.84 24.48l.19.19M28.03 24.67l7.04 6.83M44.98 33.61l-3.03-3.03M48.83 37.46l-2.01-2.01M46.82 35.45l-1.84-1.84M21.08 45.21l2.37 2.75M23.45 47.96l2.86 3.32M28.66 54l-2.35-2.72M32.43 52.79 33.47 54M36.42 50.71 39.24 54M34.7 48.71l1.72 2M9.82 43.24l3.12 3.93M9.82 43.24 7.2 39.96M18.38 54l-5.44-6.83M19.83 49.96l1.01 1.24M20.84 51.2l2.27 2.8M35.83 38.17l2.65 3.21M44.67 48.86l.28.35A43.65 43.65 0 0 0 48.38 54M35.83 38.17l-1-1.21M38.48 41.38l6.19 7.48M14.58 51.71 12.8 54M25.58 45.33l-2.13 2.63M20.84 51.2 18.58 54M23.45 47.96l-2.61 3.24M35.83 38.17l2.54-3.48M38.37 34.69l2.39-3.29M35.83 38.17l-6.44 8.88M29.39 47.05l-3.08 4.23M26.31 51.28 24.34 54M32.7 49.58 29.52 54M36.42 50.71l4.16-5.25M36.42 50.71 33.81 54M22.84 42.15l-4.61 5.14M45.67 32.81l-.69.8M41.5 37.73l3.5-4.12M38.48 41.38a69.33 69.33 0 0 0-3.31 4.27M41.5 37.73c-1 1.18-2 2.45-3 3.65M0 34.94l1-1.44M2.76 30.83 1 33.5M6.16 47.17 3.2 50.35M13.17 39.65l-3.35 3.59M1.58 52.08l1.62-1.73M9.82 43.24l-3.66 3.93M53.6 46.55 54 46M53.6 46.55l-4.2 5.78M2.29 42.95 0 46.1M10.78 31.27l-1.17 1.62M9.61 32.89 2.29 42.95M49.33 41.85l-2.94-3.25M53.6 46.55l-4.27-4.7M53.6 46.55l.4.44M.83 23.46 0 22.7M6.51 54 3.2 50.35M0 46.82l3.2 3.53M10.82 4.77l-.93-1.03M6.49 0l1.02 1.13M9.89 3.74 7.51 1.13M7.6 30.75 0 40.81M7.6 30.75l1.26-1.67M47.18 45.07l-2.51 3.79M47.18 45.07l2.15-3.22M42.9 51.58c.18-.29.83-1.3 1.77-2.72M52.79 36.68l-3.46 5.17M54 34.87l-1.21 1.81M54 40.75l-1.67 2.21M28.31 29.68l-2.3-2.53M32.84 34.65l.74.81M32.84 34.65l-4.53-4.97M47.18 45.07l-1.98-2.3M49.88 48.21l-2.7-3.14M43.35 54l-2.46-2.85M45.57 2.58 43.35 0M52.14 30.31 54 32.47M2.9 35.75.97 33.5M0 32.38l.97 1.12M54 16.27l-1.5-1.46M6.16 47.17l.89.96M2.29 42.95l3.87 4.22M2.29 42.95l-1.04-1.14M22.77 17.38l1.4 1.68M22.77 17.38l-3.35-3.98M54 53.31l-2.56-2.73M15.2 12.57l3.86-5.31M19.06 7.26l2.26-3.11M23.76.79l.57-.79M23.76.79l-2.44 3.36"/>
    </pattern>
    <filter id="luminosity-noclip" x="-.18" y=".26" width="493.68" height="367.74" filterUnits="userSpaceOnUse" color-interpolation-filters="sRGB">
      <feFlood flood-color="#fff" result="bg"/>
      <feBlend in="SourceGraphic" in2="bg"/>
    </filter>
    <style>
      .cls-3{fill:none;stroke:#221f1f;stroke-width:.43px}
    </style>
    <mask id="mask" x="-.18" y=".26" width="493.68" height="367.74" maskUnits="userSpaceOnUse">
      <path id="Cloud_11" data-name="Cloud 11" d="M394.27 144a79.38 79.38 0 0 0-67.16 37.06 34.3 34.3 0 0 0-3.94-.24 36 36 0 0 0-35.25 28.73A276.49 276.49 0 0 0 259.2 208a268.82 268.82 0 0 0-42.76 3.35 61 61 0 0 0-104.07 17.48 54.04 54.04 0 0 0-4.78-.26 55.39 55.39 0 0 0-50.72 33.18 33.47 33.47 0 0 0-6.06-.6 32.33 32.33 0 0 0 0 64.66A32 32 0 0 0 67 321.5a55.2 55.2 0 0 0 62.88 13.16c12.81 17.12 65.9 30 129.47 30a404.31 404.31 0 0 0 70.7-5.87 39 39 0 0 0 62-16.87 34 34 0 0 0 41.55-21.34 24.93 24.93 0 0 0 32.83-32.22 32 32 0 0 0 7.2-61.36c0-1.18.17-2.32.17-3.52A79.53 79.53 0 0 0 394.27 144" fill="url(#_430-K)" filter="url(#luminosity-noclip)"/>
    </mask>
  </defs>
  <g id="Cloud_11-2" data-name="Cloud 11">
    <g id="Cloud_11-3" data-name="Cloud 11">
      <g mask="url(#mask)">
        <path id="Cloud_11-4" data-name="Cloud 11" d="M394.27 144a79.38 79.38 0 0 0-67.16 37.06 34.3 34.3 0 0 0-3.94-.24 36 36 0 0 0-35.25 28.73A276.49 276.49 0 0 0 259.2 208a268.82 268.82 0 0 0-42.76 3.35 61 61 0 0 0-104.07 17.48 54.04 54.04 0 0 0-4.78-.26 55.39 55.39 0 0 0-50.72 33.18 33.47 33.47 0 0 0-6.06-.6 32.33 32.33 0 0 0 0 64.66A32 32 0 0 0 67 321.5a55.2 55.2 0 0 0 62.88 13.16c12.81 17.12 65.9 30 129.47 30a404.31 404.31 0 0 0 70.7-5.87 39 39 0 0 0 62-16.87 34 34 0 0 0 41.55-21.34 24.93 24.93 0 0 0 32.83-32.22 32 32 0 0 0 7.2-61.36c0-1.18.17-2.32.17-3.52A79.53 79.53 0 0 0 394.27 144" fill="#dcd6cc"/>
      </g>
      <path id="Cloud_11-5" data-name="Cloud 11" d="M394.27 144a79.38 79.38 0 0 0-67.16 37.06 34.3 34.3 0 0 0-3.94-.24 36 36 0 0 0-35.25 28.73A276.49 276.49 0 0 0 259.2 208a268.82 268.82 0 0 0-42.76 3.35 61 61 0 0 0-104.07 17.48 54.04 54.04 0 0 0-4.78-.26 55.39 55.39 0 0 0-50.72 33.18 33.47 33.47 0 0 0-6.06-.6 32.33 32.33 0 0 0 0 64.66A32 32 0 0 0 67 321.5a55.2 55.2 0 0 0 62.88 13.16c12.81 17.12 65.9 30 129.47 30a404.31 404.31 0 0 0 70.7-5.87 39 39 0 0 0 62-16.87 34 34 0 0 0 41.55-21.34 24.93 24.93 0 0 0 32.83-32.22 32 32 0 0 0 7.2-61.36c0-1.18.17-2.32.17-3.52A79.53 79.53 0 0 0 394.27 144" stroke="#e5cc9f" stroke-miterlimit="10" stroke-width="12.71" fill="none"/>
    </g>
  </g>
</svg>
